X:2796
T:The Highlanders Farewell to Ireland
C:anon.
O:Scotland
R:Strathspey
%Posted at abcusers Oct 20th 2000 by John Chambers.
M:C|
L:1/8
Q:1/4=86
K:Am
"Am"A,2 CB, A,/2A,/2A,A,>^F|"G"G>E DG|\
"Am"E>D E<G A>BA>G|"Em"E<GD>B, "Am"A,/2A,/2A,A,2:|
|:"Am"a>g a>b a/2a/2aa2|"G"g>ag>e d/2c/2B/2A/2 G>g|\
"Em"e>d e<g "Am"a>b a>g|"C"e<g "G"d>B "Am"A/2A/2AA2:|
|:"Am"e>A A/2A/2A e>Ae2|"G"d>G G/2G/2G B>G B<d|\
"Am"e>A A/2A/2A e>d e<a|"G"g>e d>B "Am"A/2A/2AA2:|
|:"Am"a>ba>e a>ba>e|"G"g>ag>e d/2c/2B/2A/2 G>g|\
"Em"e>d e<g "Am"a>b a>g|"C"e<g "G"d>B "Am"A/2A/2AA2:|
W:
W:
W:  From Musica Viva - http://www.musicaviva.com
W:  the Internet center for free sheet music downloads.
